src/status/16/keepassx-locked.svg

<svg width="16" height="16" viewBox="0 0 33.333 33.333" xmlns="http://www.w3.org/2000/svg">
 <path transform="scale(2.0833)" d="m11 0a5 5 0 0 0-5 5 5 5 0 0 0 0.30273 1.6973l-0.30273 0.30273-3-3h-3v3l3 3-3 3v3h3l3-3 3 3h3v-3l-3-3 0.301-0.301a5 5 0 0 0 1.699 0.301 5 5 0 0 0 5-5 5 5 0 0 0-5-5zm1.5 2a1.5 1.5 0 0 1 1.5 1.5 1.5 1.5 0 0 1-1.5 1.5 1.5 1.5 0 0 1-1.5-1.5 1.5 1.5 0 0 1 1.5-1.5z" fill="#2e3440"/>
 <path d="m28.783 21.21c-1.677 0-3.03 1.383-3.03 3.083v1.465c-0.837 0-1.515 0.675-1.515 1.515v4.55c0 0.838 0.675 1.515 1.515 1.515h6.06c0.837 0 1.515-0.675 1.515-1.515v-4.55c0-0.837-0.675-1.515-1.515-1.515v-1.465c0-1.7-1.35-3.083-3.035-3.083m0 1.521c0.846 0 1.521 0.667 1.521 1.515v1.515h-3.035v-1.515c0-0.846 0.675-1.515 1.515-1.515z" fill="#2e3440"/>
</svg>

<!-- Created with Inkscape (http://www.inkscape.org/) -->
<svg width="16" height="16" xmlns="http://www.w3.org/2000/svg" viewBox="0 0 33.333333 33.333333">
 <path d="M 11 0 A 5 5 0 0 0 6 5 A 5 5 0 0 0 6.302734 6.697266 L 6 7 L 3 4 L 0 4 L 0 7 L 3 10 L 0 13 L 0 16 L 3 16 L 6 13 L 9 16 L 12 16 L 12 13 L 9 10 L 9.301 9.699 A 5 5 0 0 0 11 10 A 5 5 0 0 0 16 5 A 5 5 0 0 0 11 0 z M 12.5 2 A 1.5 1.5 0 0 1 14 3.5 A 1.5 1.5 0 0 1 12.5 5 A 1.5 1.5 0 0 1 11 3.5 A 1.5 1.5 0 0 1 12.5 2 z" style="fill:#2e3440;opacity:1;fill-opacity:1;stroke:none;fill-rule:nonzero" transform="matrix(2.08333 0 0 2.08333 0 0)"/>
 <path d="m 28.783 21.21 c -1.677 0 -3.03 1.383 -3.03 3.083 l 0 1.465 c -0.837 0 -1.515 0.675 -1.515 1.515 l 0 4.55 c 0 0.838 0.675 1.515 1.515 1.515 l 6.06 0 c 0.837 0 1.515 -0.675 1.515 -1.515 l 0 -4.55 c 0 -0.837 -0.675 -1.515 -1.515 -1.515 l 0 -1.465 c 0 -1.7 -1.35 -3.083 -3.035 -3.083 m 0 1.521 c 0.846 0 1.521 0.667 1.521 1.515 l 0 1.515 -3.035 0 0 -1.515 c 0 -0.846 0.675 -1.515 1.515 -1.515 z" style="fill:#2e3440;fill-opacity:1"/>
</svg>
